X: 33668
T: Rambling Pitchfork, The
R: jig
M: 6/8
K: Dmajor
|:F2F AFF|dFF AFD|GFG ABc|ded cBA|
F2F AFF|dFF AFD|GFG BAB|1 AFD D2E:|2 AFD D2A||
|:d2e fed|eAA ABc|dcd fed|faf gfe|
d2e fed|eAA ABA|GFG BAB|1 AFD D2A:|2 AFD D2E||

